dist/img/svg/contacts/calendar.svg

<svg width="22" height="22" viewBox="0 0 22 22" fill="none" xmlns="http://www.w3.org/2000/svg">
<g clip-path="url(#clip0_86_1760)">
<path d="M17.2264 1.10661H16.8541V0.664407C16.8541 0.297507 16.5408 0 16.1545 0C15.7681 0 15.4549 0.297507 15.4549 0.664407V1.10661H6.54512V0.664407C6.54512 0.297507 6.23186 0 5.84552 0C5.45919 0 5.14593 0.297507 5.14593 0.664407V1.10661H4.77592C2.14232 1.10661 0 3.14117 0 5.64229V17.4643C0 19.9654 2.14232 22 4.77592 22H17.2241C19.8577 22 22 19.9654 22 17.4643V5.63934C21.9992 3.14043 19.8585 1.10661 17.2264 1.10661ZM4.77592 2.43542H5.14593V2.87762C5.14593 3.24452 5.45919 3.54203 5.84552 3.54203C6.23186 3.54203 6.54512 3.24452 6.54512 2.87762V2.43542H15.4549V2.87762C15.4549 3.24452 15.7681 3.54203 16.1545 3.54203C16.5408 3.54203 16.8541 3.24452 16.8541 2.87762V2.43542H17.2264C19.0866 2.43542 20.6 3.87276 20.6 5.63934V7.19553H1.39919V5.64229C1.39919 3.87423 2.91421 2.43542 4.77592 2.43542ZM17.2241 20.6704H4.77592C2.91421 20.6704 1.39919 19.2316 1.39919 17.4636V8.52435H20.6V17.4636C20.6008 19.2316 19.0858 20.6704 17.2241 20.6704Z" fill="#577A5B"/>
<path d="M4.77592 2.43542H5.14593V2.87762C5.14593 3.24452 5.45919 3.54203 5.84552 3.54203C6.23186 3.54203 6.54512 3.24452 6.54512 2.87762V2.43542H15.4549V2.87762C15.4549 3.24452 15.7681 3.54203 16.1545 3.54203C16.5408 3.54203 16.8541 3.24452 16.8541 2.87762V2.43542H17.2264C19.0866 2.43542 20.6 3.87276 20.6 5.63934V7.19553H1.39919V5.64229C1.39919 3.87423 2.91421 2.43542 4.77592 2.43542Z" fill="#78C081"/>
<path d="M17.2241 20.6704H4.77592C2.91421 20.6704 1.39919 19.2316 1.39919 17.4636V8.52435H20.6V17.4636C20.6008 19.2316 19.0858 20.6704 17.2241 20.6704Z" fill="#78C081"/>
<path d="M6.62152 11.748H5.52626C5.13992 11.748 4.82666 12.0456 4.82666 12.4125C4.82666 12.7794 5.13992 13.0769 5.52626 13.0769H6.62152C7.00785 13.0769 7.32111 12.7794 7.32111 12.4125C7.32111 12.0456 7.00785 11.748 6.62152 11.748Z" fill="#577A5B"/>
<path d="M11.5478 11.748H10.4525C10.0662 11.748 9.75293 12.0456 9.75293 12.4125C9.75293 12.7794 10.0662 13.0769 10.4525 13.0769H11.5478C11.9341 13.0769 12.2474 12.7794 12.2474 12.4125C12.2474 12.0456 11.9341 11.748 11.5478 11.748Z" fill="#577A5B"/>
<path d="M15.3788 13.0769H16.4741C16.8604 13.0769 17.1737 12.7794 17.1737 12.4125C17.1737 12.0456 16.8604 11.748 16.4741 11.748H15.3788C14.9925 11.748 14.6792 12.0456 14.6792 12.4125C14.6792 12.7794 14.9925 13.0769 15.3788 13.0769Z" fill="#577A5B"/>
<path d="M6.62139 16.1182H5.52614C5.1398 16.1182 4.82654 16.4157 4.82654 16.7826C4.82654 17.1495 5.1398 17.447 5.52614 17.447H6.62139C7.00773 17.447 7.32099 17.1495 7.32099 16.7826C7.32099 16.4157 7.00773 16.1182 6.62139 16.1182Z" fill="#577A5B"/>
<path d="M11.5478 16.1182H10.4525C10.0662 16.1182 9.75293 16.4157 9.75293 16.7826C9.75293 17.1495 10.0662 17.447 10.4525 17.447H11.5478C11.9341 17.447 12.2474 17.1495 12.2474 16.7826C12.2474 16.4157 11.9341 16.1182 11.5478 16.1182Z" fill="#577A5B"/>
<path d="M16.4743 16.1182H15.379C14.9927 16.1182 14.6794 16.4157 14.6794 16.7826C14.6794 17.1495 14.9927 17.447 15.379 17.447H16.4743C16.8606 17.447 17.1739 17.1495 17.1739 16.7826C17.1739 16.4157 16.8614 16.1182 16.4743 16.1182Z" fill="#577A5B"/>
</g>
<defs>
<clipPath id="clip0_86_1760">
<rect width="22" height="22" fill="white"/>
</clipPath>
</defs>
</svg>

<svg width="22" height="22" fill="none" xmlns="http://www.w3.org/2000/svg"><g clip-path="url(#clip0_86_1760)"><path d="M17.226 1.107h-.372V.664c0-.366-.313-.664-.7-.664-.386 0-.7.298-.7.664v.443H6.546V.664c0-.366-.313-.664-.7-.664-.386 0-.7.298-.7.664v.443h-.37C2.143 1.107 0 3.14 0 5.642v11.822C0 19.965 2.142 22 4.776 22h12.448C19.858 22 22 19.965 22 17.464V5.64c0-2.499-2.142-4.532-4.774-4.532zM4.776 2.435h.37v.443c0 .367.313.664.7.664.386 0 .7-.297.7-.664v-.443h8.909v.443c0 .367.313.664.7.664.386 0 .7-.297.7-.664v-.443h.371c1.86 0 3.374 1.438 3.374 3.204v1.557H1.4V5.642c0-1.768 1.514-3.207 3.376-3.207zM17.224 20.67H4.776c-1.862 0-3.377-1.438-3.377-3.206v-8.94H20.6v8.94c0 1.768-1.514 3.206-3.376 3.206z" fill="#577A5B"/><path d="M4.776 2.435h.37v.443c0 .367.313.664.7.664.386 0 .7-.297.7-.664v-.443h8.909v.443c0 .367.313.664.7.664.386 0 .7-.297.7-.664v-.443h.371c1.86 0 3.374 1.438 3.374 3.204v1.557H1.4V5.642c0-1.768 1.514-3.207 3.376-3.207zM17.224 20.67H4.776c-1.862 0-3.377-1.438-3.377-3.206v-8.94H20.6v8.94c0 1.768-1.514 3.206-3.376 3.206z" fill="#78C081"/><path d="M6.622 11.748H5.526c-.386 0-.7.298-.7.665 0 .366.314.664.7.664h1.096c.386 0 .7-.298.7-.665 0-.366-.314-.664-.7-.664zm4.926 0h-1.095c-.387 0-.7.298-.7.665 0 .366.313.664.7.664h1.095c.386 0 .7-.298.7-.665 0-.366-.314-.664-.7-.664zm3.831 1.329h1.095c.386 0 .7-.298.7-.665 0-.366-.314-.664-.7-.664H15.38c-.386 0-.7.298-.7.665 0 .366.313.664.7.664zm-8.758 3.041H5.526c-.386 0-.7.298-.7.665 0 .366.314.664.7.664h1.095c.387 0 .7-.297.7-.664 0-.367-.313-.665-.7-.665zm4.927 0h-1.095c-.387 0-.7.298-.7.665 0 .366.313.664.7.664h1.095c.386 0 .7-.297.7-.664 0-.367-.314-.665-.7-.665zm4.926 0H15.38c-.386 0-.7.298-.7.665 0 .366.314.664.7.664h1.095c.387 0 .7-.297.7-.664 0-.367-.313-.665-.7-.665z" fill="#577A5B"/></g><defs><clipPath id="clip0_86_1760"><path fill="#fff" d="M0 0h22v22H0z"/></clipPath></defs></svg>
